symbolic/24x24/apps/komorebi.svg

<svg xmlns="http://www.w3.org/2000/svg" width="24" height="24"><g transform="translate(1 1)"><path style="opacity:.2" d="m2 5.5 18-1 1 13-18 3z"/><path style="fill:#969696" d="m2 5 18-1 1 13-18 3z"/><path style="opacity:.2" d="m1 5.5 19-2 1 14-19 2z"/><path style="fill:#a8a8a8" d="m1 5 19-2 1 14-19 2z"/><rect style="opacity:.2" width="20" height="15" x="1" y="3.5" rx="1" ry="1"/><rect style="fill:#9a62d9" width="20" height="15" x="1" y="3" rx="1" ry="1"/><circle style="opacity:.2" cx="17" cy="16.5" r="4"/><circle style="fill:#fff" cx="17" cy="16" r="4"/><circle style="opacity:.2" cx="17" cy="16.5" r="3"/><circle style="fill:#945e8d" cx="17" cy="16" r="3"/><path style="opacity:.2;fill:#fff" d="M2 3c-.554 0-1 .446-1 1v.5c0-.554.446-1 1-1h18c.554 0 1 .446 1 1V4c0-.554-.446-1-1-1z"/></g></svg>

<svg xmlns="http://www.w3.org/2000/svg" width="24" height="24" version="1.1">
 <g transform="translate(1,1)">
  <path style="opacity:0.2" d="M 2,5.5 20,4.5 21,17.5 3,20.5 Z"/>
  <path style="fill:#969696" d="M 2,5 20,4 21,17 3,20 Z"/>
  <path style="opacity:0.2" d="M 1,5.5 20,3.5 21,17.5 2,19.5 Z"/>
  <path style="fill:#a8a8a8" d="M 1,5 20,3 21,17 2,19 Z"/>
  <rect style="opacity:0.2" width="20" height="15" x="1" y="3.5" rx="1" ry="1"/>
  <rect style="fill:#9a62d9" width="20" height="15" x="1" y="3" rx="1" ry="1"/>
  <circle style="opacity:0.2" cx="17" cy="16.5" r="4"/>
  <circle style="fill:#ffffff" cx="17" cy="16" r="4"/>
  <circle style="opacity:0.2" cx="17" cy="16.5" r="3"/>
  <circle style="fill:#945e8d" cx="17" cy="16" r="3"/>
  <path style="opacity:0.2;fill:#ffffff" d="M 2,3 C 1.446,3 1,3.446 1,4 V 4.5 C 1,3.946 1.446,3.5 2,3.5 H 20 C 20.554,3.5 21,3.946 21,4.5 V 4 C 21,3.446 20.554,3 20,3 Z"/>
 </g>
</svg>
